X:618
T: "Der Schuetze"
N: Z1298
O: Europa, Mitteleuropa, Tirol
R: Jaeger - Lied
M: 2/4
L: 1/16
K: A
E2 | A3Aa3f | e2ece3
c | cBB2BGG2 | A4z3
E | A2A2a3f | e2ece3
c | cBB2BGG2 | A4z2
A2 | cBBdB3B | c2cec3
c | cBBdB3B | c2cec3
E | A3Aa3f | e2ece3
c | cBB2BGG2 | A4z2

@@@ Tune index: 10376
